X: 31255
T: Paddy Fitz's
R: slide
M: 12/8
K: Gmajor
A|"G"G2F G2A "Em"BAB d2B|"C"G2G G2A "D"ABA E2D|
"G"G2F G2A "Em"BAB "D"def|"C"g2 g "Em"g2 e "G"d2 B "C"c2:|
A|"G"d^cd "D"def "G"g2 g "C"g2 e|"G"d2B BAB "G"d2 B BAB|
"G"d^cd "D"def "G"g2 g "C"g2 e|"G"d2 B "D7"cBA "G"G3G2:|

